X:45
T:B-4-C
L:1/8
M:6/8
D:"Lia Luachra" by Lia Luachra
Z:Transcribed by Lionel Gueganton
R:jig
K:Gdor
|: EFG EFG      | EFG AGA     | EFG EFG     | edc A/A/AG
| E/E/FG E/E/FG | E/E/FG AGA  | EFG EFG     |1 edc A/A/AG   :|2 edc A/A/AA
|: G=Bg dBG     | Fcf cAF     | Gdg d=BA    | cec =B_BA
| G=Bg dBG      | Fcf cAF     | gfe fed     |1 e/e/dc =B_BA :|2 e/e/dc =Bc_d
| ddd dc=B      | cAc =Bc_d   | d/d/dd dc=B | ccc =BAG
| dc=B [cG]BA   | =BAG A/A/AG | FGF EFE     | DD/D/D CDC
| =B,=Bd dcB    | =Bcc Bc_d   | Gdd dc=B    | cAc =BAG
| dc=B cBA      | =BAG A/A/AG | FGF EFE     | DD/D/D CDC     |

